src/assets/svg/icons/fa/nuevos/classic/duotone/h5 classic duotone.svg

<svg xmlns="http://www.w3.org/2000/svg" viewBox="0 0 640 512"><!--! Font Awesome Pro 6.4.0 by @fontawesome - https://fontawesome.com License - https://fontawesome.com/license (Commercial License) Copyright 2023 Fonticons, Inc. --><defs><style>.fa-secondary{opacity:.4}</style></defs><path class="fa-primary" d="M400.7 89.4C403.8 74.6 416.9 64 432 64H576c17.7 0 32 14.3 32 32s-14.3 32-32 32H458l-18.5 88H524c64.1 0 116 51.9 116 116s-51.9 116-116 116H456.4c-37.9 0-71.5-24.2-83.5-60.2l-3.2-9.7c-5.6-16.8 3.5-34.9 20.2-40.5s34.9 3.5 40.5 20.2l3.2 9.7c3.3 9.8 12.4 16.4 22.8 16.4H524c28.7 0 52-23.3 52-52s-23.3-52-52-52H400c-9.6 0-18.8-4.3-24.8-11.8s-8.5-17.3-6.5-26.8l32-152z"/><path class="fa-secondary" d="M32 64c17.7 0 32 14.3 32 32V224H256V96c0-17.7 14.3-32 32-32s32 14.3 32 32V256 416c0 17.7-14.3 32-32 32s-32-14.3-32-32V288H64V416c0 17.7-14.3 32-32 32s-32-14.3-32-32V256 96C0 78.3 14.3 64 32 64z"/></svg>

<svg xmlns="http://www.w3.org/2000/svg" viewBox="0 0 640 512"><defs><style>.fa-secondary{opacity:.4}</style></defs><path class="fa-primary" d="M400.7 89.41C403.8 74.6 416.9 64 432 64H576C593.7 64 608 78.33 608 96C608 113.7 593.7 128 576 128H457.1L439.4 216H524C588.1 216 640 267.9 640 332C640 396.1 588.1 448 524 448H456.4C418.5 448 384.9 423.8 372.9 387.8L369.6 378.1C364.1 361.4 373.1 343.2 389.9 337.6C406.6 332.1 424.8 341.1 430.4 357.9L433.6 367.6C436.9 377.4 446 384 456.4 384H524C552.7 384 576 360.7 576 332C576 303.3 552.7 280 524 280H400C390.4 280 381.2 275.7 375.2 268.2C369.1 260.7 366.7 250.8 368.7 241.4L400.7 89.41z"/><path class="fa-secondary" d="M32 64C49.67 64 64 78.33 64 96V224H256V96C256 78.33 270.3 64 288 64C305.7 64 320 78.33 320 96V416C320 433.7 305.7 448 288 448C270.3 448 256 433.7 256 416V288H64V416C64 433.7 49.67 448 32 448C14.33 448 0 433.7 0 416V96C0 78.33 14.33 64 32 64z"/></svg>
